assets/svg/networks/wallet_aave.svg

<svg width="36" height="36" viewBox="0 0 36 36" fill="none" xmlns="http://www.w3.org/2000/svg">
<g clip-path="url(#clip0_21224_78191)">
<rect width="36" height="36" rx="12" fill="url(#paint0_linear_21224_78191)"/>
<path fill-rule="evenodd" clip-rule="evenodd" d="M26.666 15.7817C26.666 8.77751 22.9224 6 18.299 6C13.6755 6 9.93193 8.58774 10.0009 12.8489V27.6507C10.0009 28.151 10.3977 28.5478 10.898 28.5478C11.3983 28.5478 11.7951 28.151 11.7951 27.6507V24.925C11.7951 24.4419 12.2264 24.0624 12.7439 24.0624H12.7612C13.2787 24.0797 13.6928 24.4592 13.6928 24.9422V26.1153C13.6928 26.6156 14.0896 27.0124 14.5899 27.0124C15.0902 27.0124 15.4869 26.6156 15.4869 26.1153V24.925C15.4869 24.4419 15.9182 24.0624 16.4358 24.0624H16.453C16.9706 24.0797 17.3846 24.4592 17.3846 24.9422V25.1665C17.3846 25.6668 17.7814 26.0636 18.2817 26.0636C18.782 26.0636 19.1788 25.6668 19.1788 25.1665V24.925C19.1788 24.4419 19.6101 24.0624 20.1276 24.0624H20.1449C20.6624 24.0797 21.0765 24.4592 21.0765 24.9422V26.1153C21.0765 26.6156 21.4732 27.0124 21.9735 27.0124C22.4738 27.0124 22.8706 26.6156 22.8706 26.1153V24.925C22.8706 24.4419 23.3019 24.0624 23.8195 24.0624H23.8367C24.3543 24.0797 24.7683 24.4592 24.7683 24.9422V27.599C24.7683 28.1165 25.1823 28.5478 25.7171 28.5478C26.2347 28.5478 26.666 28.1338 26.666 27.599V15.7817ZM13.2097 11.9345C13.2097 10.9685 13.9861 10.1921 14.9521 10.1921C15.9182 10.1921 16.6946 10.9685 16.6946 11.9345C16.6946 12.9006 15.9182 13.677 14.9521 13.677C13.9861 13.677 13.2097 12.9006 13.2097 11.9345ZM19.3858 11.9345C19.3858 10.9685 20.1621 10.1921 21.1282 10.1921C22.0943 10.1921 22.8706 10.9685 22.8706 11.9345C22.8706 12.9006 22.0943 13.677 21.1282 13.677C20.1621 13.677 19.3858 12.9006 19.3858 11.9345ZM19.6621 15.3503C19.6621 15.7816 19.0928 16.4027 18.3337 16.4027C17.5574 16.4027 17.1433 15.9714 17.0226 15.5401C16.9708 15.3848 16.9536 14.988 17.2986 14.988C17.4513 14.988 17.5927 15.0142 17.7438 15.0422C17.9172 15.0743 18.1033 15.1088 18.3337 15.1088C18.5691 15.1088 18.7781 15.0735 18.9584 15.0431C19.1348 15.0134 19.2838 14.9882 19.4033 15.0053C19.5585 15.0225 19.6621 15.1778 19.6621 15.3503Z" fill="url(#paint1_linear_21224_78191)"/>
</g>
<defs>
<linearGradient id="paint0_linear_21224_78191" x1="26" y1="10" x2="12" y2="37" gradientUnits="userSpaceOnUse">
<stop stop-color="#954E9B"/>
<stop offset="0.921691" stop-color="#3BB3C5"/>
</linearGradient>
<linearGradient id="paint1_linear_21224_78191" x1="22.7292" y1="13.4685" x2="13.2878" y2="20.3064" gradientUnits="userSpaceOnUse">
<stop stop-color="white"/>
<stop offset="1" stop-color="white"/>
<stop offset="1" stop-color="white"/>
</linearGradient>
<clipPath id="clip0_21224_78191">
<rect width="36" height="36" fill="white"/>
</clipPath>
</defs>
</svg>

<svg xmlns="http://www.w3.org/2000/svg" width="36" height="36" fill="none"><g clip-path="url(#a)"><rect width="36" height="36" fill="url(#b)" rx="12"/><path fill="url(#c)" fill-rule="evenodd" d="M26.666 15.782C26.666 8.778 22.922 6 18.299 6s-8.367 2.588-8.298 6.849V27.65c0 .5.397.897.897.897s.897-.397.897-.897v-2.726c0-.483.431-.863.949-.863h.017c.518.018.932.397.932.88v1.173c0 .5.397.897.897.897a.89.89 0 0 0 .897-.897v-1.19c0-.483.431-.863.949-.863h.017c.518.018.932.397.932.88v.224c0 .5.396.898.897.898.5 0 .897-.397.897-.898v-.241c0-.483.431-.863.949-.863h.017c.517.018.931.397.931.88v1.173c0 .5.397.897.898.897.5 0 .897-.396.897-.897v-1.19c0-.483.43-.863.949-.863h.017c.517.018.931.397.931.88V27.6c0 .517.414.949.95.949a.946.946 0 0 0 .948-.949zM13.21 11.935c0-.966.776-1.743 1.742-1.743s1.743.777 1.743 1.742c0 .967-.777 1.743-1.743 1.743a1.74 1.74 0 0 1-1.742-1.742m6.176 0c0-.966.776-1.743 1.742-1.743s1.743.777 1.743 1.742c0 .967-.777 1.743-1.743 1.743a1.74 1.74 0 0 1-1.742-1.742m.276 3.415c0 .432-.57 1.053-1.328 1.053-.777 0-1.19-.432-1.311-.863-.052-.155-.07-.552.276-.552a2.4 2.4 0 0 1 .445.054c.173.032.36.067.59.067.235 0 .444-.036.624-.066.177-.03.326-.055.445-.038.155.018.26.173.26.345" clip-rule="evenodd"/></g><defs><linearGradient id="b" x1="26" x2="12" y1="10" y2="37" gradientUnits="userSpaceOnUse"><stop stop-color="#954E9B"/><stop offset=".922" stop-color="#3BB3C5"/></linearGradient><linearGradient id="c" x1="22.729" x2="13.288" y1="13.469" y2="20.306" gradientUnits="userSpaceOnUse"><stop stop-color="#fff"/><stop offset="1" stop-color="#fff"/><stop offset="1" stop-color="#fff"/></linearGradient><clipPath id="a"><path fill="#fff" d="M0 0h36v36H0z"/></clipPath></defs></svg>
